icons/shield-x-24.svg

<svg width="24" height="24" viewBox="0 0 24 24" xmlns="http://www.w3.org/2000/svg">
  <path d="M9.28033 7.71967C8.98744 7.42678 8.51256 7.42678 8.21967 7.71967C7.92678 8.01256 7.92678 8.48744 8.21967 8.78033L10.9393 11.5L8.21967 14.2197C7.92678 14.5126 7.92678 14.9874 8.21967 15.2803C8.51256 15.5732 8.98744 15.5732 9.28033 15.2803L12 12.5607L14.7197 15.2803C15.0126 15.5732 15.4874 15.5732 15.7803 15.2803C16.0732 14.9874 16.0732 14.5126 15.7803 14.2197L13.0607 11.5L15.7803 8.78033C16.0732 8.48744 16.0732 8.01256 15.7803 7.71967C15.4874 7.42678 15.0126 7.42678 14.7197 7.71967L12 10.4393L9.28033 7.71967Z"/>
  <path fill-rule="evenodd" clip-rule="evenodd" d="M12.5399 0.63663C12.189 0.522816 11.811 0.522816 11.4601 0.63663L3.21012 3.31231C2.48947 3.54603 2 4.21654 2 4.97593V9.99999C2.00001 16.1893 5.7708 20.7049 11.401 22.8293C11.7866 22.9748 12.2134 22.9748 12.599 22.8293C18.2292 20.7049 22 16.1893 22 9.99999V4.97621C22 4.21708 21.5108 3.54611 20.7899 3.31231L12.5399 0.63663ZM11.9229 2.06346C11.973 2.0472 12.027 2.0472 12.0771 2.06346L20.3271 4.73914C20.4308 4.77277 20.5 4.8685 20.5 4.97621V9.99999C20.5 15.4613 17.2193 19.4827 12.0695 21.4259C12.0251 21.4426 11.9749 21.4426 11.9305 21.4259C6.78075 19.4827 3.5 15.4613 3.5 9.99999L3.5 4.97593C3.5 4.86847 3.56895 4.77284 3.67287 4.73914L11.9229 2.06346Z"/>
</svg>

<svg xmlns="http://www.w3.org/2000/svg" width="24" height="24" viewBox="0 0 24 24"><path d="M9.28 7.72a.75.75 0 00-1.06 1.06l2.72 2.72-2.72 2.72a.75.75 0 101.06 1.06L12 12.56l2.72 2.72a.75.75 0 101.06-1.06l-2.72-2.72 2.72-2.72a.75.75 0 00-1.06-1.06L12 10.44 9.28 7.72z"/><path fill-rule="evenodd" d="M12.54.637a1.75 1.75 0 00-1.08 0L3.21 3.312A1.75 1.75 0 002 4.976V10c0 6.19 3.77 10.705 9.401 12.83.386.145.812.145 1.198 0C18.229 20.704 22 16.19 22 10V4.976c0-.759-.49-1.43-1.21-1.664L12.54.637zm-.617 1.426a.25.25 0 01.154 0l8.25 2.676a.25.25 0 01.173.237V10c0 5.461-3.28 9.483-8.43 11.426a.2.2 0 01-.14 0C6.78 19.483 3.5 15.46 3.5 10V4.976c0-.108.069-.203.173-.237l8.25-2.676z"/></svg>
